X:157
T:Quickstep No 2. - Regulation Fife Calls 1776-1856, #11 *
B:American Veteran Fifer, Regulation Fife Calls 1776-1856, #11
M:2/4
L:1/16
Q:1/4=90
K:D
A2|d2dd d2d2|dcde dcde|f2ff f2g2|fefg fefg|a2a2a2 ba|g2g2 g2ag|f2f2 fagf|e4 z2:||
||:cd|e2ee e2f2|edcB A2fg|a2aa a2b2|agfe d2ag|fdfc d2ag|fdec d2ag|fgab f2e2|d4 z2:||
